src/icons/block.svg

<?xml version="1.0" encoding="UTF-8"?>
<svg xmlns="http://www.w3.org/2000/svg" xmlns:xlink="http://www.w3.org/1999/xlink" width="32" height="32" viewBox="0 0 32 32" version="1.1">
<g id="surface1">
<path style=" stroke:none;fill-rule:nonzero;fill:rgb(0%,0%,0%);fill-opacity:1;" d="M 1.28125 5.121094 L 1.28125 11.519531 L 10.238281 11.519531 L 10.238281 5.121094 Z M 11.519531 5.121094 L 11.519531 11.519531 L 20.480469 11.519531 L 20.480469 5.121094 Z M 21.761719 5.121094 L 21.761719 11.519531 L 30.71875 11.519531 L 30.71875 5.121094 Z M 1.28125 12.800781 L 1.28125 19.199219 L 5.121094 19.199219 L 5.121094 12.800781 Z M 6.398438 12.800781 L 6.398438 19.199219 L 15.359375 19.199219 L 15.359375 12.800781 Z M 16.640625 12.800781 L 16.640625 19.199219 L 25.601562 19.199219 L 25.601562 12.800781 Z M 26.878906 12.800781 L 26.878906 19.199219 L 30.71875 19.199219 L 30.71875 12.800781 Z M 1.28125 20.480469 L 1.28125 26.878906 L 10.238281 26.878906 L 10.238281 20.480469 Z M 11.519531 20.480469 L 11.519531 26.878906 L 20.480469 26.878906 L 20.480469 20.480469 Z M 21.761719 20.480469 L 21.761719 26.878906 L 30.71875 26.878906 L 30.71875 20.480469 Z M 21.761719 20.480469 "/>
</g>
</svg>

<svg role="img" viewBox="0 0 32 32" xmlns="http://www.w3.org/2000/svg"><path d="M1.281 5.121v6.399h8.957v-6.4Zm10.239 0v6.399h8.96v-6.4Zm10.242 0v6.399h8.957v-6.4Zm-20.48 7.68v6.398h3.84v-6.398Zm5.116 0v6.398h8.961v-6.398Zm10.243 0v6.398h8.96v-6.398Zm10.238 0v6.398h3.84v-6.398ZM1.28 20.48v6.398h8.957V20.48Zm10.239 0v6.398h8.96V20.48Zm10.242 0v6.398h8.957V20.48Zm0 0" style="stroke:none;fill-rule:nonzero;fill:rgb(0%,0%,0%);fill-opacity:1"/></svg>
